img/adapt.svg

<svg width="61" height="61" viewBox="0 0 61 61" fill="none" xmlns="http://www.w3.org/2000/svg">
<path d="M40.3518 48.2721C43.7025 48.2721 46.4189 45.5655 46.4189 42.2267C46.4189 38.888 43.7025 36.1814 40.3518 36.1814C37.001 36.1814 34.2847 38.888 34.2847 42.2267C34.2847 45.5655 37.001 48.2721 40.3518 48.2721Z" stroke="#E87C40" stroke-width="5" stroke-linecap="round" stroke-linejoin="round"/>
<path d="M16.0832 24.0907C19.434 24.0907 22.1503 21.3841 22.1503 18.0453C22.1503 14.7066 19.434 12 16.0832 12C12.7324 12 10.0161 14.7066 10.0161 18.0453C10.0161 21.3841 12.7324 24.0907 16.0832 24.0907Z" stroke="#E87C40" stroke-width="5" stroke-linecap="round" stroke-linejoin="round"/>
<path d="M30.2397 18.0454H36.3068C37.3796 18.0454 38.4084 18.4701 39.1669 19.2259C39.9254 19.9817 40.3516 21.0068 40.3516 22.0757V36.1815" stroke="#E87C40" stroke-width="5" stroke-linecap="round" stroke-linejoin="round"/>
<path d="M16.083 24.0908V48.2722" stroke="#E87C40" stroke-width="5" stroke-linecap="round" stroke-linejoin="round"/>
<path d="M49.3518 41.2721C52.7025 41.2721 55.4189 38.5655 55.4189 35.2267C55.4189 31.888 52.7025 29.1814 49.3518 29.1814C46.001 29.1814 43.2847 31.888 43.2847 35.2267C43.2847 38.5655 46.001 41.2721 49.3518 41.2721Z" stroke="#110303" stroke-width="5" stroke-linecap="round" stroke-linejoin="round"/>
<path d="M25.0832 17.0907C28.434 17.0907 31.1503 14.3841 31.1503 11.0453C31.1503 7.70659 28.434 5 25.0832 5C21.7324 5 19.0161 7.70659 19.0161 11.0453C19.0161 14.3841 21.7324 17.0907 25.0832 17.0907Z" stroke="#110303" stroke-width="5" stroke-linecap="round" stroke-linejoin="round"/>
<path d="M39.2397 11.0453H45.3068C46.3796 11.0453 47.4084 11.47 48.1669 12.2258C48.9254 12.9816 49.3516 14.0067 49.3516 15.0756V29.1814" stroke="#110303" stroke-width="5" stroke-linecap="round" stroke-linejoin="round"/>
<path d="M25.083 17.0907V41.2721" stroke="#110303" stroke-width="5" stroke-linecap="round" stroke-linejoin="round"/>
</svg>

<svg width="61" height="61" fill="none" xmlns="http://www.w3.org/2000/svg"><path d="M40.352 48.272c3.35 0 6.067-2.706 6.067-6.045s-2.716-6.046-6.067-6.046-6.067 2.707-6.067 6.046c0 3.339 2.716 6.045 6.067 6.045ZM16.083 24.09c3.351 0 6.067-2.706 6.067-6.045 0-3.338-2.716-6.045-6.067-6.045-3.35 0-6.067 2.707-6.067 6.045 0 3.34 2.716 6.046 6.067 6.046Z" stroke="#E87C40" stroke-width="5" stroke-linecap="round" stroke-linejoin="round"/><path d="M30.24 18.045h6.067c1.073 0 2.101.425 2.86 1.18a4.023 4.023 0 0 1 1.185 2.85v14.107M16.083 24.09v24.182" stroke="#E87C40" stroke-width="5" stroke-linecap="round" stroke-linejoin="round"/><path d="M49.352 41.272c3.35 0 6.067-2.706 6.067-6.045s-2.716-6.046-6.067-6.046-6.067 2.707-6.067 6.046c0 3.339 2.716 6.045 6.067 6.045ZM25.083 17.09c3.351 0 6.067-2.706 6.067-6.045C31.15 7.707 28.434 5 25.083 5c-3.35 0-6.067 2.707-6.067 6.045 0 3.34 2.716 6.046 6.067 6.046ZM39.24 11.045h6.067c1.073 0 2.101.425 2.86 1.18a4.023 4.023 0 0 1 1.185 2.85v14.106M25.083 17.09v24.182" stroke="#110303" stroke-width="5" stroke-linecap="round" stroke-linejoin="round"/></svg>
